static/logos/webflow-wordmark-color.svg

<svg width="100" height="26" viewBox="0 0 100 26" fill="none" xmlns="http://www.w3.org/2000/svg">
<g clip-path="url(#clip0_1_440)">
<path d="M32.2621 9.82695C32.2621 8.03461 30.5192 6.13103 27.5031 6.13103C24.1162 6.13103 20.3956 8.61557 19.8269 13.5723C19.246 18.5785 22.3609 20.8035 25.5006 20.8035C28.6403 20.8035 30.2843 19.5797 31.9654 17.9481C30.5192 16.131 28.6527 16.9716 28.2942 17.157C27.8986 17.3548 27.3918 17.6267 26.3535 17.6267C25.1422 17.6267 23.9061 17.0828 23.9061 14.8208C31.6687 14.0544 32.2621 11.6193 32.2621 9.82695ZM28.4178 10.1236C28.3684 10.6799 28.1459 11.6316 24.2151 12.1632C25.0433 9.22126 26.6255 8.99876 27.3548 8.99876C28.0346 8.99876 28.4672 9.53028 28.4178 10.1236ZM15.2658 10.6057C15.2658 10.6057 13.597 15.8467 13.4611 16.2794C13.4116 15.8344 12.1879 6.42769 12.1879 6.42769C9.34487 6.42769 7.82448 8.45488 7.02101 10.5933C7.02101 10.5933 4.99382 15.8467 4.82077 16.2917C4.80841 15.8838 4.51174 10.6551 4.51174 10.6551C4.33869 8.03461 1.94067 6.44005 0 6.44005L2.34858 20.6922C5.32757 20.6798 6.93449 18.665 7.77503 16.5266C7.77503 16.5266 9.56737 11.8912 9.64153 11.6811C9.65389 11.8789 10.9271 20.6922 10.9271 20.6922C13.9184 20.6922 15.5253 18.801 16.3906 16.7367L20.581 6.44005C17.6267 6.44005 16.0692 8.45488 15.2658 10.6057ZM43.2386 6.1063C41.3968 6.1063 39.9876 7.10754 38.801 8.57849V8.56613L39.864 0C37.4166 0 35.4265 2.12608 35.0433 5.29048L33.1891 20.581C34.5983 20.581 36.0939 20.1731 36.8974 19.1347C37.6143 20.0618 38.6897 20.8035 40.2843 20.8035C44.4129 20.8035 47.2435 16.0074 47.2435 11.508C47.2188 7.4042 45.2287 6.1063 43.2386 6.1063ZM42.8554 13.4611C42.4227 15.9703 41.026 17.6761 39.6786 17.6761C38.3189 17.6761 37.7379 17.0705 37.7379 17.0705C37.9975 14.8702 38.1582 13.5229 38.6527 12.3609C39.1471 11.199 40.3214 9.34487 41.5451 9.34487C42.7441 9.34487 43.288 10.9394 42.8554 13.4611ZM57.5525 6.44005H54.6724L54.6848 6.29172C54.8826 4.41286 55.3276 3.42398 56.7985 3.26329C57.7998 3.1644 58.2448 2.64524 58.356 2.07664C58.4425 1.63164 58.7145 0.0865266 58.7145 0.0865266C52.9295 0.0494438 51.1125 2.54635 50.6428 6.35352L50.6304 6.44005H50.5686C49.6292 6.44005 48.5909 7.50309 48.4178 8.85043L48.356 9.34487H50.2843L48.665 22.7194L48.1706 25.1174C48.2324 25.1174 48.3066 25.1298 48.3684 25.1298C51.0754 25.0309 52.8059 22.8925 53.1891 19.7899L54.4499 9.34487H55.3523C56.2423 9.34487 57.2806 8.45488 57.466 6.97157L57.5525 6.44005ZM72.534 6.19283C69.2089 6.19283 66.0692 8.6403 65.1051 12.4845C64.1409 16.3288 65.5995 20.8776 70.4944 20.8776C75.377 20.8776 78.1953 16.1434 78.1953 12.2002C78.1953 8.28183 75.5377 6.19283 72.534 6.19283ZM73.8813 13.3375C73.7083 15.0803 72.9419 17.7256 70.8405 17.7256C68.7268 17.7256 69.0235 14.6354 69.2336 13.1644C69.4561 11.5946 70.3337 9.35723 72.225 9.35723C73.9184 9.35723 74.0791 11.3721 73.8813 13.3375ZM94.623 10.6057C94.623 10.6057 92.9543 15.8467 92.8183 16.2794C92.7689 15.8344 91.5451 6.42769 91.5451 6.42769C88.7021 6.42769 87.1817 8.45488 86.3782 10.5933C86.3782 10.5933 84.3511 15.8467 84.178 16.2917C84.1656 15.8838 83.869 10.6551 83.869 10.6551C83.6959 8.03461 81.2979 6.44005 79.3572 6.44005L81.6935 20.6922C84.6724 20.6798 86.2794 18.665 87.1199 16.5266C87.1199 16.5266 88.9122 11.8912 88.974 11.6811C88.9864 11.8789 90.2596 20.6922 90.2596 20.6922C93.2509 20.6922 94.8579 18.801 95.7231 16.7367L99.9135 6.44005C96.9716 6.44005 95.4141 8.45488 94.623 10.6057ZM60.2719 0.0865266L57.8492 19.6292L57.3548 22.0396C57.4166 22.0396 57.4907 22.0519 57.5525 22.0519C60.1607 22.0148 62.0148 19.7281 62.3609 16.848L63.7577 5.63659C64.178 2.21261 62.1384 0.0865266 60.2719 0.0865266Z" fill="#1A1A1A"/>
</g>
<defs>
<clipPath id="clip0_1_440">
<rect width="100" height="25.2163" fill="white"/>
</clipPath>
</defs>
</svg>

<svg xmlns="http://www.w3.org/2000/svg" width="246.154" height="64" fill="none" viewBox="0 0 100 26"><g clip-path="url(#a)"><path fill="#1A1A1A" d="M32.262 9.827c0-1.792-1.743-3.696-4.759-3.696-3.387 0-7.107 2.485-7.676 7.441-.581 5.006 2.534 7.232 5.674 7.232 3.14 0 4.783-1.224 6.464-2.856-1.446-1.817-3.312-.976-3.67-.791-.396.198-.903.47-1.942.47-1.21 0-2.447-.544-2.447-2.806 7.763-.767 8.356-3.202 8.356-4.994Zm-3.844.297c-.05.556-.272 1.508-4.203 2.04.828-2.943 2.41-3.165 3.14-3.165.68 0 1.112.531 1.063 1.125Zm-13.152.482s-1.669 5.24-1.805 5.673c-.05-.445-1.273-9.851-1.273-9.851-2.843 0-4.364 2.027-5.167 4.165 0 0-2.027 5.254-2.2 5.699-.013-.408-.31-5.637-.31-5.637C4.34 8.035 1.942 6.44 0 6.44l2.349 14.252c2.979-.012 4.585-2.027 5.426-4.165 0 0 1.792-4.636 1.867-4.846.012.198 1.285 9.011 1.285 9.011 2.991 0 4.598-1.891 5.464-3.955L20.58 6.44c-2.954 0-4.512 2.015-5.315 4.166Zm27.973-4.5c-1.842 0-3.251 1.002-4.438 2.472v-.012L39.864 0c-2.447 0-4.438 2.126-4.82 5.29l-1.855 15.291c1.41 0 2.905-.408 3.708-1.446.717.927 1.793 1.668 3.387 1.668 4.129 0 6.96-4.796 6.96-9.295-.025-4.104-2.015-5.402-4.005-5.402Zm-.384 7.355c-.432 2.51-1.829 4.215-3.176 4.215-1.36 0-1.941-.605-1.941-.605.26-2.2.42-3.548.915-4.71.494-1.162 1.668-3.016 2.892-3.016 1.2 0 1.743 1.594 1.31 4.116ZM57.553 6.44h-2.88l.012-.148c.198-1.88.643-2.868 2.113-3.029 1.002-.099 1.447-.618 1.558-1.186.087-.445.358-1.99.358-1.99-5.785-.038-7.602 2.46-8.071 6.267l-.013.086h-.061c-.94 0-1.978 1.063-2.151 2.41l-.062.495h1.928l-1.619 13.374-.494 2.398c.061 0 .136.013.197.013 2.707-.1 4.438-2.238 4.821-5.34l1.26-10.445h.903c.89 0 1.929-.89 2.114-2.373l.087-.532Zm14.981-.247c-3.325 0-6.465 2.447-7.429 6.292-.964 3.844.495 8.393 5.39 8.393 4.882 0 7.7-4.735 7.7-8.678 0-3.918-2.657-6.007-5.661-6.007Zm1.347 7.145c-.173 1.742-.94 4.388-3.04 4.388-2.114 0-1.817-3.09-1.607-4.562.222-1.57 1.1-3.807 2.991-3.807 1.693 0 1.854 2.015 1.656 3.98Zm20.742-2.732s-1.669 5.24-1.805 5.673c-.05-.445-1.273-9.851-1.273-9.851-2.843 0-4.363 2.027-5.167 4.165 0 0-2.027 5.254-2.2 5.699-.012-.408-.309-5.637-.309-5.637-.173-2.62-2.571-4.215-4.512-4.215l2.337 14.252c2.978-.012 4.585-2.027 5.426-4.165 0 0 1.792-4.636 1.854-4.846.012.198 1.286 9.011 1.286 9.011 2.99 0 4.598-1.891 5.463-3.955l4.19-10.297c-2.941 0-4.499 2.015-5.29 4.166ZM60.272.086 57.849 19.63l-.494 2.41c.062 0 .136.013.198.013 2.608-.037 4.462-2.324 4.808-5.204l1.397-11.211c.42-3.424-1.62-5.55-3.486-5.55Z"/></g><defs><clipPath id="a"><path fill="#fff" d="M0 0h100v25.216H0z"/></clipPath></defs></svg>
